X:1
T:Magnificat quarti toni - Soriano
T:#
%%score [ 1 2 3 4 ]
L:1/8
Q:1/4=130
M:none
K:C
V:1 treble nm="S" snm="S"
V:2 treble nm="A" snm="A"
V:3 treble-8 nm="T" snm="T"
V:4 bass nm="B" snm="B"
V:1
 x12 ||"^Magnificat quarti toni""^Francesco Soriano\n(1549-1621)"[Q:1/4=200] z4 A6 A2 ^G4 | A8 B8 | %3
w: |A- ni- ma|me- a|
 G12 E4 | E16 || z26 | z24 ||[Q:1/4=200][Q:1/4=200][Q:1/4=200][Q:1/4=200] z4 c4 A4 c4 | B8 B4 B4 | %9
w: Do- mi-|num.|||Qui- a re-|spe- xit hu-|
 c4 d4 G8 | G4 B4 (A2 B2 c2 A2 | B4) c4 (B2 A2 A4- | A4 ^G2 ^F2 G8) | A4 A8 A4 |[M:4/2] A8 G8 | %15
w: mi- li- ta-|tem an- cil\- * * *|* lae su\- * *||ae: ec- ce|e- nim|
 z16 | z16 | z4 c8 c4 | B6 c2 A8- | A4 ^G4 A8 | ^G16 || %21
w: ||o- mnes|ge- ne- ra\-|* ti- o-|nes.|
[Q:1/4=130][Q:1/4=130][Q:1/4=130][Q:1/4=130] z26 | z20 || %23
w: ||
[Q:1/4=200][Q:1/4=200][Q:1/4=200][Q:1/4=200] z16 | z16 | z16 | z16 | z4 (E2 F2 G2 E2 A4- | %28
w: ||||In * * * *|
 A4) G4 A8- |[M:4/2] (A4 G2 F2 E4 D4 | E4 D2 C2 D4) D4 | E4 G4 c6 c2 | B4 (B6 A2 A4) | ^G16 || %34
w: * pro- ge\-||* * * * ni-|es ti- men- ti-|bus e\- * *|um.|
[Q:1/4=130][Q:1/4=130][Q:1/4=130][Q:1/4=130] z24 | z24 || %36
w: ||
[M:4/2][Q:1/4=200][Q:1/4=200][Q:1/4=200][Q:1/4=200] z8 z4 E4 | A6 B2 c4 A4- | A4 c8 B4 | %39
w: De-|po- su- it po\-|* ten- tes|
 c4 (A8 G4) | A8 z4 A4- | A4 B8 G4 | c4 c4 A4 A4 | ^G16 || %44
w: de se\- *|de, et|* ex- al-|ta- vit hu- mi-|les.|
[Q:1/4=130][Q:1/4=130][Q:1/4=130][Q:1/4=130] z24 | z24 || %46
w: ||
[M:4/2][Q:1/4=200][Q:1/4=200][Q:1/4=200][Q:1/4=200] A8 A8- | A4 A4 A4 A4 | A8 A8- | A4 ^G4 A8 | %50
w: Su- sce\-|* pit Is- ra-|el pu\-|* e- rum|
 B16 | A16 | A12 A4 | A8 A4 A4 | A4 ^G4 (A6 =G2 | F4 E2 D2 C4) D4 | (E2 F2 G2 A2 B4) c4 | %57
w: su-|um,|re- cor-|da- tus mi-|se- ri- cor\- *|* * * * di-|ae * * * * su-|
 G4 (c6 B2 A4) | ^G16 ||[Q:1/4=130][Q:1/4=130][Q:1/4=130][Q:1/4=130] z24 | z26 || %61
w: ae, su\- * *|ae.|||
[M:4/2][Q:1/4=200][Q:1/4=200][Q:1/4=200][Q:1/4=200] A12 A4 | A8 A8 | G4 c8 (B4- | B2 A2 A8) ^G4 | %65
w: Glo- ri-|a Pa-|tri, et Fi\-|* * * li-|
 A4 A8 A4 | B6 B2 G8- | G16 | E16 | E16 ||[Q:1/4=130][Q:1/4=130][Q:1/4=130][Q:1/4=130] z24 | z24 |] %72
w: o, et Spi-|ri- tu- i||san-|cto.|||
V:2
 x8 x2 x2 || z4 E6 E2 E4 | (E6 F2 G8) | E8 D4 C4 | B,16 || z26 | z24 || E8 F4 E4 | G8 G4 G4 | %9
w: |A- ni- ma|me\- * *|a Do- mi-|num.|||Qui- a re-|spe- xit hu-|
 F4 D4 E8 | D4 G4 (E6 F2 | G12) F4 | E8 E8 | z4 E8 F4 |[M:4/2] F8 (E6 F2 | G4 F2 E2 D8) | z16 | %17
w: mi- li- ta-|tem an- cil\- *|* lae|su- ae:|ec- ce|e- nim *|||
 z4 G8 G4 | G6 G2 F4 F4 | E16 | E16 || z26 | z20 || E8 ^F4 G4- | G4 E4 C6 C2 | D4 (E6 C2 F4- | %26
w: o- mnes|ge- ne- ra- ti-|o-|nes.|||Et mi- se\-|* ri- cor- di-|a e\- * *|
 F4 E8 D4) | E4 G8 C4 | D4 E4 F4 F4- |[M:4/2] (F2 ED E4) A,4 (D4- | D2 C2 C8) B,4 | C4 E4 G6 G2 | %32
w: |ius a pro-|ge- ni- e in|* * * * pro- ge\-|* * * ni-|es ti- men- ti-|
 G8 E8 | E16 || z24 | z24 ||[M:4/2] z8 z4 A,4 | C6 D2 E4 F4 | (C2 D2 E2 F2 G8) | E4 F4 D8 | %40
w: bus e-|um.|||De-|po- su- it po-|ten\- * * * *|tes de se-|
 F4 F4 F4 E4 | (F2 E2 D2 C2 B,4) E4 | E12 E4 | E16 || z24 | z24 ||[M:4/2] E8 E8- | E4 E4 F4 F4 | %48
w: de, et ex- al-|ta\- * * * * vit|hu- mi-|les.|||Su- sce\-|* pit Is- ra-|
 E8 E8- | E4 E4 E8 | G16 | E16 | F12 E4 | F8 E4 A,4 | D4 E4 F4 E4 | D4 (C8 B,2 A,2 | %56
w: el pu\-|* e- rum|su-|um,|re- cor-|da- tus mi-|se- ri- cor- di-|ae su\- * *|
 G,8) E,4 (E4- | E2 D2 C2 B,2 A,2 B,2 C4) | B,16 || z24 | z26 ||[M:4/2] E12 E4 | F4 (E6 DC D4) | %63
w: * ae, su\-||ae.|||Glo- ri-|a Pa\- * * *|
 E4 G4 (G6 F2 | E12) E4 | E4 E8 ^F4 | G6 G2 E8 | (D12 C2 B,2 | C16) | B,16 || z24 | z24 |] %72
w: tri, et Fi\- *|* li-|o, et Spi-|ri- tu- i|san\- * *||cto.|||
V:3
 A2 G2 A2 A2 A4 || z4 c6 c2 B4 | c8 d8 | (c4 B2 A2 B4) A4 | ^G16 || A2 G2 A2 A8 G2 A2 B2 A2 A4 | %6
w: Ma- gni\- * fi- cat|A- ni- ma|me- a|Do\- * * * mi-|num.|Et ex\- * ultavit~spi- ri- tus me\- * us|
 A8 G2 A2 B2 A2 G2 F2 E4 || c8 c4 c4 | d8 d4 G4 | A4 B4 c8 | G4 d4 (c2 d2 e2 c2 | d4) e4 (d8 | %12
w: in~Deo~sa- lu- ta- ri * me\- * o.|Qui- a re-|spe- xit hu-|mi- li- ta-|tem an- cil\- * * *|* lae su\-|
 c4 B2 A2 B8) | A4 c8 c4 |[M:4/2][K:treble-8] c8 c4 c4 | c4 c4 B8 | G4 c8 B4 | c4 e8 e4 | %18
w: |ae: ec- ce|e- nim ex|hoc be- a-|tam me di-|cent o- mnes|
 d6 e2 c4 d4 | (B8 c8) | B16 || A2 G2 A2 A8 G2 A2 B2 A2 A4 | A2 A2 G2 A2 B2 A2 G2 F2 E4 || %23
w: ge- ne- ra- ti-|o\- *|nes.|Qui- a * fecit~mihi~ma- gna qui po- tens est,|et san- ctum no- men * e\- * ius.|
 z4 A8 B4 | c8 A4 F4- | F2 F2 (G4 A8- | A4 G4 F8) | E8 z8 | z8 z4 (F2 G2) | %29
w: Et mi-|se- ri- cor-|di- a e\- *||ius|in *|
[M:4/2][K:treble-8] (A2 B2 c8) B4 | A4 A4 G8 | z4 c4 e6 e2 | d8 c8 | B16 || %34
w: * * * pro-|ge- ni- es|ti- men- ti-|bus e-|um.|
 A2 G2 A2 A8 G2 A2 B2 A4 | A8 G2 A2 B2 A2 G2 F2 E4 ||[M:4/2][K:treble-8] z4 A4 c6 d2 | %37
w: Fe- cit * potentiam~in~bra- chi- o su- o,|dispersit~superbos~men- te cor- dis * su\- * i.|De- po- su-|
 e4 f4 (c6 d2 | e6 dc d8) | c4 F4 G8 | D4 d4 d4 e4 | (d2 c2 B2 A2 G4) B4 | (A6 B2 c4) c4 | B16 || %44
w: it po- ten\- *||tes de se-|de, et ex- al-|ta\- * * * * vit|hu\- * * mi-|les.|
 A2 G2 A2 A8 G2 A2 B2 A4 | A8 G2 A2 B2 A2 G2 F2 E4 ||[M:4/2][K:treble-8] ^c8 c8- | c4 ^c4 d8- | %48
w: ~E- su\- * rientes~im- ple- vit bo- nis|et~divites~di- mi- sit i\- * na\- * nes.|Su- sce\-|* pit Is\-|
 d4 =c4 c4 c4- | c4 B4 c8 | (d6 cd e4 d4- | d4 ^c2 B2 c8) | d4 d8 ^c4 | d8 ^c8 | z8 z4 A4 | %55
w: * ra- el pu\-|* e- rum|su\- * * * *||um, re- cor-|da- tus|mi-|
 A4 G4 A6 A2 | B8 G8 | E16- | E16 || A2 G2 A2 A8 G2 A2 B2 A4 | A8 G2 A2 B2 A2 G2 G2 F2 E4 || %61
w: se- ri- cor- di-|ae su-|ae.||Si- cut * locutus~est~ad pa- tres no- stros,|Abraham~et~semini e- ius in * sae- cu\- * la.|
[M:4/2][K:treble-8] c12 c4 | c8 A8 | B4 e8 (d4- | d2 c2 c2 BA B4) B4 | A4 ^c8 d4 | d6 d2 c4 (c4- | %67
w: Glo- ri-|a Pa-|tri, et Fi\-|* * * * * * li-|o, et Spi-|ri- tu- i san\-|
 c4 B2 A2 B8 | G6 E2 A8) | ^G16 || A2 G2 A2 A8 G2 A2 B2 A4 | A8 G2 A2 B2 A2 G2 F2 E4 |] %72
w: ||cto.|Si- cut * erat~in~principio,~et nunc, et sem- per,|et~in~saecula~sae- cu- lo- rum. * A\- * men.|
V:4
 x12 || A,8 A,4 E,4 | A,8 G,8 | (C,2 D,2 E,2 F,2 G,4) A,4 | E,16 || z26 | z24 || A,8 F,4 A,4 | %8
w: |A- ni- ma|me- a|Do- * * * * mi-|num.|||Qui- a re-|
 G,8 G,8 | z8 z4 C4 | B,4 G,4 A,8 | G,4 C,4 D,4 D,4 | E,8 E,8 | z4 A,8 F,4 |[M:4/2] F,8 C,4 C,4 | %15
w: spe- xit|hu-|mi- li- ta-|tem an- cil- lae|su- ae:|ec- ce|e- nim ex|
 E,4 F,4 G,8 | E,6 F,2 D,8 | C,4 C8 C,4 | G,6 E,2 F,4 D,4 | (E,8 A,,8) | E,16 || z26 | z20 || z16 | %24
w: hoc be- a-|tam me di-|cent o- mnes|ge- ne- ra- ti-|o\- *|nes.||||
 z16 | z8 z4 D,4- | D,4 G,,4 A,,4 B,,4 | C,4 (C,2 D,2 E,2 C,2 F,4- | F,4) E,4 D,4 D,4 | %29
w: |A|* pro- ge- ni-|e in * * * *|* pro- ge- ni-|
[M:4/2] C,8 z8 | z16 | z4 C,4 C,6 C,2 | G,,8 A,,8 | E,16 || z24 | z24 ||[M:4/2] A,8 A,8- | %37
w: es||ti- men- ti-|bus e-|um.|||De- po\-|
 A,4 A,4 A,4 A,4 | A,8 G,8 | A,8 B,8 | A,4 D,4 D,4 ^C,4 | D,8 E,8 | A,,12 A,,4 | E,16 || z24 | %45
w: * su- it po-|ten- tes|de se-|de, et ex- al-|ta- vit|hu- mi-|les.||
 z24 ||[M:4/2] A,8 A,8- | A,4 A,4 D,4 D,4 | A,,8 A,8- | A,4 E,4 A,8 | G,16 | A,16 | z4 D,8 A,4 | %53
w: |Su- sce\-|* pit Is- ra-|el pu\-|* e- rum|su-|um,|re- cor-|
 D,8 A,8 | z8 z4 A,,4 | D,4 E,4 F,6 F,2 | E,4 (E,6 D,2 C,2 B,,2 | C,2 B,,2 A,,2 G,,2 A,,8) | %58
w: da- tus|mi-|se- ri- cor- di-|ae su\- * * *||
 E,,16 || z24 | z26 ||[M:4/2] A,12 A,4 | A,8 F,8 | E,4 (C,2 D,2 E,2 F,2 G,4) | (A,6 G,F, E,4) E,4 | %65
w: ae.|||Glo- ri-|a Pa-|tri, et * * * *|Fi\- * * * li-|
 A,,4 A,8 D,4 | G,6 G,2 C,8 | (G,,16 | C,12 D,4) | E,16 || z24 | z24 |] %72
w: o, et Spi-|ri- tu- i|san\-||cto.|||

